!!!!SEGMENT: pl-cz--ii-87--002-006_grim-jozef--spiewy-do-dwoch-mszy-benedictus.krn
!!!cenid: 18xx:1178
!!!COM: Grim, Józef
!!!COM-rismID: pe30003883
!!!CDT: ~1800-~1899
!!!CNT:
!!!OPR: Śpiewy do dwóch mszy
!!!OTL: Benedictus
!!!OMV: 006
!!!PDT: 1888
!!!AGN: Sacred; Mass
!!!SMS-siglum: PL-CZ
!!!SMS-shelfmark: II-87
!!!SMS-shelfwork: 002-006 M
!!!SMS-variant:
!!!SMS-altvar:
!!!NIFC-rismSourceID: 300033225
!!!NIFC-islandoraID: pl-cz:33881
!!!URL-pdf-islandora: https://repozytorium.nifc.pl/islandora/object/pl-cz%3A33881/datastream/PDF/view
!!!URL-scan:
!!!ONB-nifc: UWAGA: części Mszy: Kirie, Gloria, Credo, Offertorium, Sanctus, Benedictus, Agnus Dei
!!!AIN: 1 organ 1 vox
!!!key: C
**kern	**kern	**dynam	**kern	**text	**dynam
*part2	*part2	*part2	*part1	*part1	*part1
*staff3	*staff2	*	*staff1	*staff1	*
*I"Organ	*I"Organ	*	*I"Głos	*	*
*Iorgan	*Iorgan	*	*Ivox	*	*
*ICklav	*ICklav	*	*ICvox	*	*
*IGacmp	*IGacmp	*	*IGsolo	*	*
*clefF4	*clefG2	*	*clefG2	*	*
*k[]	*k[]	*	*k[]	*	*
*C:	*C:	*	*C:	*	*
*M4/4	*M4/4	*	*M4/4	*	*
*met(c)	*met(c)	*	*met(c)	*	*
=1	=1	=1	=1	=1	=1
*	*^	*	*	*	*
!	!	!	!	!LO:TX:a:t=Benedictus	!	!
2r	4c/	2rAyy	.	2r	.	.
!	!LO:TUP:b:problem=klamra łukowa	!	!	!	!	!
.	12B/L	.	.	.	.	.
.	12c/	.	.	.	.	.
.	12e/J	.	.	.	.	.
4r	4g/	4rAyy	.	4r	.	.
!	!	!	!LO:DY:b=2	!	!	!LO:DY:b:rj
4C/	4g/	4e 4c\	mf	4g/	Ho-	mf
=2	=2	=2	=2	=2	=2	=2
2F 2FF/	2a 2f/	2c\	.	2a/	-zan-	.
4F 4FF/	4f 4A/	4rFyy	.	4f/	-na,	.
4r	4a/	4f\	.	4a/	w po-	.
=3	=3	=3	=3	=3	=3	=3
2G 2C\	2cc/	2e\	.	2cc\	-tę-	.
4G 4C\	4g/	4e\	.	4g/	-gi	.
4c\	4g/	4e\	.	4g/	o-	.
=4	=4	=4	=4	=4	=4	=4
4B\	1g	4d\	.	2g/	-gro-	.
4c\	.	4e\	.	.	.	.
4B\	.	4d\	.	4g/	-mie-	.
4A\	.	4c\	.	4g/	-nia	.
=5	=5	=5	=5	=5	=5	=5
4G\	2.g/	4B\	.	2g/	oł-	.
4F\	.	4d\	.	.	.	.
4E\	.	4c\	.	4g/	-tarz	.
4c 4C\	4g/	4e\	.	4g/	o-	.
=6	=6	=6	=6	=6	=6	=6
*^	*	*	*	*	*	*
4A 4AA\	2rGGyy	2cc/	2e\	.	2cc\	-fiar-	.
8B\L	.	.	.	.	.	.	.
8c\J	.	.	.	.	.	.	.
4d/	4c\	2a/	2f#X\	.	4a/	-ny	.
4ryy	4ryy	.	.	.	4a/	ho-	.
!!LO:LB:g=original
=7	=7	=7	=7	=7	=7	=7	=7
2d/	2B\	2dd/	2g\	.	2dd\	-zan-	.
4B/	4G\	4b/	4g\	.	4b\	-na	.
4ryy	4E\	8g/L	4c#X\	.	8g/L	Bóg	.
.	.	8a/J	.	.	8a/J	.	.
*v	*v	*	*	*	*	*	*
=8	=8	=8	=8	=8	=8	=8
2D\	2b/	2g 2d\	.	2b\	ztą-	.
2D\	4.b/	2f#X 2c\	.	4.b\	-pił	.
.	8a/	.	.	8a/	wi-	.
=9	=9	=9	=9	=9	=9	=9
4G\	2a/	2f#X 2c\	.	2a/	-do-	.
4D\	.	.	.	.	.	.
4GG/	4g 4B;/	4ryy	.	4g;/	-mie	.
4G\	4g/	4B\	.	4g/	S	.
*	*v	*v	*	*	*	*
=10	=10	=10	=10	=10	=10
*^	*	*	*	*	*
4GG/	1GG	1g 1B	.	2g/	cia-	.
4G\	.	.	.	.	.	.
4G\	.	.	.	4g/	-ła	.
4G\	.	.	.	4g/	i	.
=11	=11	=11	=11	=11	=11	=11
*	*	*^	*	*	*	*
4GG/	1GG	8g#XL 8B/	2reyy	.	8g#X/L	du-	.
.	.	8aJ 8c/	.	.	8a/J	.	.
4G\	.	2a 2c/	.	.	4a/	-szę,	.
4G\	.	.	4reyy	.	4r	.	.
4G\	.	4a/	8c\L	.	4a/	i	.
.	.	.	8c#X\J	.	.	.	.
=12	=12	=12	=12	=12	=12	=12	=12
4GG/	1GG	2b/	2d\	.	2b\	krew	.
4G\	.	.	.	.	.	.	.
4G\	.	2b/	4d\	.	4b\	swo-	.
4G\	.	.	4f\	.	4b\	-ją	.
!!LO:LB:g=original
=13	=13	=13	=13	=13	=13	=13	=13
4GG/	1GG	8bL 8d#X/	2ryy	.	8b\L	bie-	.
.	.	8ccJ 8e/	.	.	8cc\J	.	.
4G/	.	4cc 4e/	.	.	4cc\	-rze	.
4G/	.	4r	4ryy	.	4r	.	.
4G/	.	4cc/	4g 4e\	.	4cc\	i	.
=14	=14	=14	=14	=14	=14	=14	=14
4B/	4G\	2.dd/	4g\	.	2dd\	mę-	.
4c/	4A-X\	.	4f#X\	.	.	.	.
2B/	4G\	.	4g\	.	4dd\	-kę	.
.	4F\	4dd/	[4a\	.	4dd\	od-	.
=15	=15	=15	=15	=15	=15	=15	=15
2B/	2E\	2ee/	4a\]	.	2ee\	-na-	.
.	.	.	4g#X/	.	.	.	.
4A\	2ryy	4cc/	4a\	.	4cc\	-wia	.
4F#X/	.	4a/	4e-X 4c\	.	4a/	w nie-	.
*v	*v	*	*	*	*	*	*
=16	=16	=16	=16	=16	=16	=16
4G\	2g/	2en 2c\	.	2g/	-krwa-	.
8G\L	.	.	.	.	.	.
8F#X\J	.	.	.	.	.	.
4G\	4g 4e/	2ryy	.	4g/	-wej	.
8GL 8GG\	4f 4d/	.	.	4f/	o-	.
!	!	!	!	!	!	!LO:DY:b
8G#XJ 8GG#X\	.	.	.	.	.	f
=17	=17	=17	=17	=17	=17	=17
*^	*	*	*	*	*	*
2A/	2.AA\	2f/	2d\	.	2f/	-fie-	.
8G#X/	.	4e/	4c\	.	4e/	-rze;	.
8A/	.	.	.	.	.	.	.
4B-X/	4Gn\	4e/	4c#X\	.	4e/	i	.
=18	=18	=18	=18	=18	=18	=18	=18
2.A/	4F\	4ryy	4d\	.	(4d/	mę-	.
.	4E\	4e/	4c#X\	.	4e/)	.	.
.	4D\	4f/	4d\	.	4f/	-kę	.
4A/	4C\	4f#X/	4e-X\	.	4f#X/	od-	.
=19	=19	=19	=19	=19	=19	=19	=19
2.G/	2BB\	4g/	2d\	.	(4g/	-na-	.
.	.	4fn/	.	.	4fn/)	.	.
.	4C/	4e/	4c\	.	4e/	-wia	.
4ryy	4FF/	4f 4d/	4A\	.	4f/	w nie-	.
!!LO:LB:g=original
=20	=20	=20	=20	=20	=20	=20	=20
4FF/	2ryy	2e/	2c 2G\	.	2e/	-krwa-	.
8C/L	.	.	.	.	.	.	.
8E/J	.	.	.	.	.	.	.
4G\	4ryy	2d/	4c\	.	4d/	-wej	.
4F/	4GG\	.	4B\	.	4d/	o-	.
=21	=21	=21	=21	=21	=21	=21	=21
2E/	2C\	2c/	2c\	.	2c/	-fie-	.
4E/	2C\	[2g/	2B-X\	.	4c/	-rze.	.
8D/L	.	.	.	.	4r	.	.
8E/J	.	.	.	.	.	.	.
=22	=22	=22	=22	=22	=22	=22	=22
[2F/	[1C	4g/]	2A\	.	1r	.	.
.	.	4c/	.	.	.	.	.
8F\L]	.	2f/	8A\L	.	.	.	.
8G\	.	.	8B\	.	.	.	.
8A\	.	.	8c\	.	.	.	.
8B\J	.	.	8d\J	.	.	.	.
=23	=23	=23	=23	=23	=23	=23	=23
2.G/	2.C\]	4f/	2.A\	.	1r	.	.
.	.	4d#X/	.	.	.	.	.
.	.	4e/	.	.	.	.	.
4A/	4AA\	4e/	4c\	.	.	.	.
=24	=24	=24	=24	=24	=24	=24	=24
2G/	2GG\	2e/	2c\	.	1r	.	.
4.G/	2GG\	2d/	4c\	.	.	.	.
.	.	.	4B\	.	.	.	.
8F/	.	.	.	.	.	.	.
=25	=25	=25	=25	=25	=25	=25	=25
2E/	2C\	2c/	2ryy	.	1r	.	.
2F/	2C\	2c/	2A\	.	.	.	.
=26	=26	=26	=26	=26	=26	=26	=26
2.E/	2.C;\	2.c;/	2.G\	.	1r;	.	.
4r	4ryy	4r	4rcyy	.	.	.	.
*v	*v	*	*	*	*	*	*
*	*v	*v	*	*	*	*
==	==	==	==	==	==
*-	*-	*-	*-	*-	*-
!!!system-decoration: <s1>(s2,s3)
!!!ENC: Marcin Jachim
!!!END: 2020-11-07
!!!ENC: Marta Lawrence
!!!END: 2021-11-14
